resources/svg/briefcase-o.svg

<svg xmlns="http://www.w3.org/2000/svg" viewBox="0 0 15 15" fill="none"><path d="M5.5 3V2.5C5.5 1.39543 6.39543 0.5 7.5 0.5C8.60457 0.5 9.5 1.39543 9.5 2.5V3M0.5 11.5H14.5M1.5 3.5H13.5C14.0523 3.5 14.5 3.94772 14.5 4.5V13.5C14.5 14.0523 14.0523 14.5 13.5 14.5H1.5C0.947716 14.5 0.5 14.0523 0.5 13.5V4.5C0.5 3.94772 0.947715 3.5 1.5 3.5Z" stroke="black"/></svg>

<svg xmlns="http://www.w3.org/2000/svg" viewBox="0 0 15 15" fill="none"><path d="M5.5 3v-.5a2 2 0 114 0V3m-9 8.5h14m-13-8h12a1 1 0 011 1v9a1 1 0 01-1 1h-12a1 1 0 01-1-1v-9a1 1 0 011-1z" stroke="currentColor"/></svg>
